X:1
T:Esleu m'avez pour votre
T:Jean Guyon
T:Source : Livre VIII de 25 chansons nouvelles à 4 parties---Paris---N.du Chemin---1550. Editor : André Vierendeels (21/03/18) Notes : Original clefs : C1, C3, C4, F4 Original note values have been halved Editorial accidentals above the staff 
T:Esleu m'avez pour votre
T:©
T:©
T:©
C:Jean Guyon
Z:©
%%score 1 [ 2 3 ] 4
L:1/8
Q:1/4=120
M:2/2
K:C
V:1 treble nm="Alto" snm="A"
V:2 treble-8 nm="Tenor 1" snm="T 1"
V:3 treble-8 nm="Tenor 2" snm="T 2"
V:4 bass nm="Bass" snm="B"
V:1
 F8 | F2 E2 DEFG | AGAB c2 c2 | B2 A2 A2 G2 | A4 z2 A2 | A4 F4 | D2 D2 E2 G2 | F2 E2 DEFD | %8
w: Es-|leu m'a- vez _ _ _|_ _ _ _ _ pour|vo- stre seul plai-|sir, ie|vous a-|vois pour ma ioy-|e choi- si- * * *|
w: Mais|vous souf- frez _ _ _|_ _ _ _ _ un|tiers m'en de- sai-|sir, et|tri- um-|phez de ma proy-|e ra- vi- * * *|
"^#" ED D4 C2 |[M:2/4] D4 :|[M:2/2] E8 | F2 G2 A4 | G4 G2 A2 | B2 A4 G2 | A8 | z2 D2 D2 D2 | %16
w: |e,|ce|non ob- stant|il ne me|prent en- vi-|e,|soit per- te'ou|
w: |e,|||||||
 G4 G4 | F3 F F2 E2 | D4 C4 |: z4 G4- | G4 G4- | G2 A2 G4 | z2 E2 G4 | G4 D4- | D2 E2 F2 G2 | %25
w: gaing, d'es-|tre de rien moins|vo- stre,|car|_ i'ay-|* me mieulx|es- tre|tou- te|_ _ _ _|
w: |||||||||
 A2 GF E2 A2- | A2 G2 A4 | z2 A2 A4 | F4 D2 D2 | E2 G2 F2 E2 | DEFD E2 D2- |"^#" D2 C2 D4- | D8 :| %33
w: * ma _ _ vi-|* * e,|vo- stre'en|lan- gueur qu'en|plai- * sir à|un _ _ _ _ aul-|* * tre.|_|
w: ||||||||
V:2
 c8 | c2 c2 A2 d2 | e2 e2 cdef | g2 f2 e2 e2 | e4 c4 | A8 | z2 g2 g2 e2 | c2 c2 B2 A2 | B2 G2 A4 | %9
w: Es-|leu m'a- vez pour|vo- stre seul _ _ _|_ plai- sir, ie|vous a-|vais,|ie vous a-|vais pour ma ioy-|e choi- si-|
w: Mais|vous souf- frez un|tiers m'en de- * * *|* sai- sir, et|tri- um-|phez,|et tri- um-|phez de ma proy-|e ra- vi-|
[M:2/4] A4 :|[M:2/2] c8 | d2 e2 e4 | e4 e2 c2 | g2 f2 e4 | c4 f4 | f2 f2 g4 | e4 e2 e2 | c6 c2 | %18
w: e,|ce|non ob- stant|il ne me|prent en- vi-|e, soit|per- te'ou gaing,|d'es- tre de|rien moins|
w: e,|||||||||
 A4 A4 |: z4 e4- | e4 d4- | d2 d2 e2 e2 | g4 e4 | d6 e2 | f2 g2 a2 g2 | f2 e4 d2 | e2 e2 e4 | %27
w: vo- stre,|car|_ i'ay-|* me mieulx, car|i'ay- me|mieulx es-|tre tou- te ma|vi- * *|e, vo- str'en|
w: |||||||||
 c4 A4- | A4 z2 g2 | g2 e2 c2 c2 | B2 A2 B2 G2 | A4 A4- | A8 :| %33
w: lan- gueur,|_ en|lan- gueur que'n plai-|sir à un aul-|* tre.|_|
w: ||||||
V:3
 A8 | A2 G2 FGAB | cBcd e2 c2 | d2 c2 B2 B2 | A8 | z2 d2 d4 | B4 G2 G2 | A2 G2 F2 F2 | GFED E4 | %9
w: Es-|leu m'a- vez _ _ _|_ _ _ _ _ pour|vo- stre seul plai-|sir,|ie vous|a- vois pour|ma ioy- e choi-|si- * * * *|
w: Mais|vous souf- frez _ _ _|_ _ _ _ _ un|tiers m'en de- sai-|sir,|et tri-|um- pher de|ma proy- e ra-|vi- * * * *|
[M:2/4] D4 :|[M:2/2] G8 | A2 B2 c4 | B4 c2 A2 | d2 c2 B4 | A2 A2 A2 A2 | d4 z2 G2 | G2 G2 c2 c2 | %17
w: e,|ce|non ob- stant|il ne me|prent en- vi-|e, soit per- te'ou|gaing, soit|per- te'ou gaing d'es-|
w: e,||||||||
 A3 A A2 G2 | F4 E4 |: z4 c4- | c4 B4- | B2 A2 B4- | B4 z4 | B8 | d4 d4 | A2 B2 c2 BA | B4 A4- | %27
w: tre de rien moins|vo- stre,|car|_ i'ay-|* me mieulx|_|es-|tre tou-|te ma vi- * *|* e,|
w: ||||||||||
 A4 z2 d2 | d4 B4 | G2 G2 A2 G2 | F2 F2 GFED | E4 D4- | D8 :| %33
w: _ vo-|str'en lan-|gueur qu'en plai- sir|à un aul- * * *|* tre.|_|
w: ||||||
V:4
 F,8 | F,2 C,2 D,4 | A,,4 A,2 A,2 | G,2 A,2 E,4 | z2 A,2 A,4 | F,4 D,2 D,2 | G,2 G,2 C,4 | %7
w: Es-|leu m'a- vez|pour vo- stre|seul plai- sir,|ie vous|a- vois pour|ma ioy- e|
w: Mais|vous souf- frez|un tiers m'en|de- sai- sir,|et trri-|um- pher de|ma proy- e,|
 z2 C,2 D,2 D,2 | G,,2 B,,2 A,,4 |[M:2/4] D,4 :|[M:2/2] C,8 | F,2 E,2 A,,4 | E,4 E,2 F,2 | %13
w: pour ma ioy-|e choi- si-|e,|ce|non ob- stant|il ne me|
w: de ma proy-|e ra- vi-|e,||||
 G,2 A,2 E,4 | A,,4 D,4 | D,2 D,2 G,4 | C,8 | F,3 F, F,2 C,2 | D,4 A,,4 |: z4 C,4- | C,4 G,4- | %21
w: prent en- vi-|e, soit|per- te'ou gaing,|d'es-|tre de rien moins|vo- stre,|car|_ i'ay-|
w: ||||||||
 G,2 F,2 E,4- | E,4 E,4 | G,4 G,4 | D,6 E,2 | F,2 G,2 A,2 F,2 | E,4 z2 A,2 | A,4 F,4 | %28
w: * me mieulx|_ es-|tre tou-|te ma|vi- * * *|e, vo-|str'en lan-|
w: |||||||
 D,2 D,2 G,4 | C,4 z2 C,2 | D,2 D,2 G,,2 B,,2 | A,,4 D,4- | D,8 :| %33
w: gueur qu'en plai-|sir, qu'en|pla- sir à un|aul- tre.|_|
w: |||||

